X:73
T:I'll Buy Boots for Maggie
R:polka
Z:id:hn-polka-73
M:2/4
L:1/8
K:Am
EA AB|cB AB|EA AB|cB A2|EA AB|cB AB|ef/e/ dB|BA AG:|
|:A>B cd|eg a2|ef/e/ dB|BA AG|A>B cd|eg a2|ef/e/ dB|BA AG:|
P:Cool version:
EA AB|cB AB|FA AB|cB A2|^FA AB|cB AB|ef/e/ dB|BA AG:|
|:A>B cd|eg a2|ef/e/ dB|BA AG|A>B cd|eg a2|ef/e/ dB|BA AG:|
<end>
<start>
